branches/nugui/src/gui/icons/build_transmute.svg

<?xml version="1.0" encoding="UTF-8" standalone="no"?>
<!-- Created with Inkscape (http://www.inkscape.org/) -->

<svg
   xmlns:dc="http://purl.org/dc/elements/1.1/"
   xmlns:cc="http://creativecommons.org/ns#"
   xmlns:rdf="http://www.w3.org/1999/02/22-rdf-syntax-ns#"
   xmlns:svg="http://www.w3.org/2000/svg"
   xmlns="http://www.w3.org/2000/svg"
   xmlns:xlink="http://www.w3.org/1999/xlink"
   xmlns:inkscape="http://www.inkscape.org/namespaces/inkscape"
   version="1.0"
   width="100"
   height="100"
   id="svg2">
  <metadata
     id="metadata2566">
    <rdf:RDF>
      <cc:Work
         rdf:about="">
        <dc:format>image/svg+xml</dc:format>
        <dc:type
           rdf:resource="http://purl.org/dc/dcmitype/StillImage" />
      </cc:Work>
    </rdf:RDF>
  </metadata>
  <defs
     id="defs4">
    <linearGradient
       id="linearGradient3458">
      <stop
         id="stop3460"
         style="stop-color:#ffffff;stop-opacity:1"
         offset="0" />
      <stop
         id="stop3462"
         style="stop-color:#a2a5aa;stop-opacity:0"
         offset="1" />
    </linearGradient>
    <linearGradient
       id="linearGradient3452">
      <stop
         id="stop3454"
         style="stop-color:#ffffff;stop-opacity:1"
         offset="0" />
      <stop
         id="stop3456"
         style="stop-color:#000000;stop-opacity:1"
         offset="1" />
    </linearGradient>
    <linearGradient
       id="linearGradient3384">
      <stop
         id="stop3386"
         style="stop-color:#0000ff;stop-opacity:1"
         offset="0" />
      <stop
         id="stop3388"
         style="stop-color:#000000;stop-opacity:1"
         offset="1" />
    </linearGradient>
    <linearGradient
       id="linearGradient3252">
      <stop
         id="stop3254"
         style="stop-color:#ffffff;stop-opacity:1"
         offset="0" />
      <stop
         id="stop3256"
         style="stop-color:#7f7fff;stop-opacity:0"
         offset="1" />
    </linearGradient>
    <linearGradient
       x1="25.398125"
       y1="63.345894"
       x2="90.625114"
       y2="63.345894"
       id="linearGradient2472"
       xlink:href="#linearGradient3384"
       gradientUnits="userSpaceOnUse"
       gradientTransform="matrix(0.2688926,0.2688926,-0.2688926,0.2688926,38.227733,-8.4494346)" />
    <radialGradient
       cx="58.01162"
       cy="63.345894"
       r="33.113495"
       fx="58.01162"
       fy="63.345894"
       id="radialGradient2474"
       xlink:href="#linearGradient3252"
       gradientUnits="userSpaceOnUse"
       gradientTransform="matrix(0.2134373,0,0,0.2134373,19.805211,5.9610473)" />
    <radialGradient
       cx="58.01162"
       cy="63.345894"
       r="33.113495"
       fx="58.01162"
       fy="63.345894"
       id="radialGradient2477"
       xlink:href="#linearGradient3458"
       gradientUnits="userSpaceOnUse"
       gradientTransform="matrix(0.2134373,0,0,0.2134373,1.5077702,2.6691513)" />
    <linearGradient
       x1="25.398125"
       y1="63.345894"
       x2="90.625114"
       y2="63.345894"
       id="linearGradient2480"
       xlink:href="#linearGradient3452"
       gradientUnits="userSpaceOnUse"
       gradientTransform="matrix(0.2688926,0.2688926,-0.2688926,0.2688926,19.930292,-11.741331)" />
  </defs>
  <path
     d="m 33.941707,24.730861 c 0.0012,6.850275 -5.551709,12.404157 -12.401985,12.404157 -6.850275,0 -12.403184,-5.553882 -12.401985,-12.404157 -0.0012,-6.850276 5.55171,-12.404157 12.401985,-12.404157 6.850276,0 12.403184,5.553881 12.401985,12.404157 l 0,0 z"
     inkscape:connector-curvature="0"
     id="path4435"
     style="fill:#282828;fill-opacity:1;fill-rule:evenodd;stroke:none" />
  <rect
     width="29.618961"
     height="29.618961"
     x="8.1732807"
     y="48.870705"
     id="rect4441"
     style="fill:#282828;fill-opacity:1;fill-rule:evenodd;stroke:none" />
  <rect
     width="29.618961"
     height="29.618961"
     x="70.158958"
     y="48.870705"
     id="rect4447"
     style="fill:#282828;fill-opacity:1;fill-rule:evenodd;stroke:none" />
  <path
     d="m 38.377033,49.758242 6.93554,43.258845 10.31584,-5.95586 6.92788,11.99944 6.42827,-3.71136 -6.92788,-11.999437 10.31584,-5.955853 -33.99549,-27.635775 z"
     inkscape:connector-curvature="0"
     id="path4451"
     style="fill:#282828;fill-opacity:1;fill-rule:evenodd;stroke:none" />
  <path
     d="m 96.365741,24.730861 c 0.0012,6.850275 -5.551709,12.404157 -12.401985,12.404157 -6.850275,0 -12.403184,-5.553882 -12.401985,-12.404157 -0.0012,-6.850276 5.55171,-12.404157 12.401985,-12.404157 6.850276,0 12.403184,5.553881 12.401985,12.404157 l 0,0 z"
     inkscape:connector-curvature="0"
     id="path4457"
     style="fill:#282828;fill-opacity:1;fill-rule:evenodd;stroke:none" />
  <path
     d="m 30.769332,20.936894 c 0.0012,6.850275 -5.551709,12.404157 -12.401985,12.404157 -6.850275,0 -12.4031838,-5.553882 -12.4019848,-12.404157 -0.0012,-6.850276 5.5517098,-12.404157 12.4019848,-12.404157 6.850276,0 12.403184,5.553881 12.401985,12.404157 l 0,0 z"
     inkscape:connector-curvature="0"
     id="path3474"
     style="fill:#e4e4e3;fill-opacity:1;fill-rule:evenodd;stroke:#000000;stroke-width:0.38027155px;stroke-linecap:butt;stroke-linejoin:miter;stroke-opacity:1" />
  <path
     d="m 27.265473,29.660334 c -4.843029,4.844723 -12.696715,4.845411 -17.5405898,0.0015 -4.843878,-4.843877 -4.843189,-12.697563 0.00153,-17.54059 4.8430278,-4.844725 12.6967138,-4.845413 17.5405908,-0.0015 4.843875,4.843876 4.843187,12.697563 -0.0015,17.540591 l 0,0 z"
     inkscape:connector-curvature="0"
     id="path3476"
     style="opacity:0.71739131;fill:url(#linearGradient2480);fill-opacity:1;fill-rule:evenodd;stroke:none" />
  <g
     transform="matrix(1.5408162,0,0,1.5408162,-3.6468576,35.77771)"
     id="g2219">
    <rect
       width="19.222904"
       height="19.222904"
       x="4.4989777"
       y="4.7034764"
       id="rect2217"
       style="fill:#e4e7e1;fill-opacity:1;fill-rule:evenodd;stroke:#000000;stroke-width:1.5;stroke-linecap:round;stroke-linejoin:round;stroke-miterlimit:4;stroke-opacity:1;stroke-dasharray:none;stroke-dashoffset:0" />
    <path
       d="m 10.1248,8.9966755 1.183593,0 0,3.5859375 4.300782,0 0,-3.5859375 1.183593,0 0,8.7480465 -1.183593,0 0,-4.166015 -4.300782,0 0,4.166015 -1.183593,0 0,-8.7480465"
       inkscape:connector-curvature="0"
       id="text3300"
       style="font-size:12px;font-style:normal;font-weight:normal;fill:#000000;fill-opacity:1;stroke:none;font-family:Bitstream Vera Sans" />
  </g>
  <g
     transform="matrix(1.5408162,0,0,1.5408162,58.691024,-5.3423634)"
     id="g2215">
    <rect
       width="19.222904"
       height="19.222904"
       x="4.2703981"
       y="31.390678"
       id="rect3191"
       style="fill:#004fe1;fill-opacity:1;fill-rule:evenodd;stroke:#000000;stroke-width:1.5;stroke-linecap:round;stroke-linejoin:round;stroke-miterlimit:4;stroke-opacity:1;stroke-dasharray:none;stroke-dashoffset:0" />
    <path
       d="m 9.2428141,36.652134 1.1835939,0 0,7.751953 4.259765,0 0,0.996094 -5.4433589,0 0,-8.748047 m 6.6328129,2.185547 1.078125,0 0,6.5625 -1.078125,0 0,-6.5625 m 0,-2.554688 1.078125,0 0,1.365235 -1.078125,0 0,-1.365235"
       inkscape:connector-curvature="0"
       id="text3342"
       style="font-size:12px;font-style:normal;font-weight:normal;fill:#000000;fill-opacity:1;stroke:none;font-family:Bitstream Vera Sans" />
  </g>
  <path
     d="m 35.204658,45.964275 6.93554,43.258844 10.31584,-5.955854 6.92788,11.999435 6.42827,-3.711363 -6.92788,-11.999434 10.31584,-5.955853 -33.99549,-27.635775 z"
     inkscape:connector-curvature="0"
     id="path6783"
     style="fill:#ffffff;fill-opacity:1;fill-rule:evenodd;stroke:#000000;stroke-width:1.69662297;stroke-linecap:round;stroke-linejoin:round;stroke-miterlimit:4;stroke-opacity:1;stroke-dashoffset:0" />
  <path
     d="m 20.850547,16.189526 c 6.73e-4,3.844893 -3.11604,6.962154 -6.960935,6.962154 -3.844894,0 -6.9616078,-3.117261 -6.9609348,-6.962154 -6.73e-4,-3.844895 3.1160408,-6.962154 6.9609348,-6.962154 3.844895,0 6.961608,3.117259 6.960935,6.962154 l 0,0 z"
     inkscape:connector-curvature="0"
     id="path3478"
     style="fill:url(#radialGradient2477);fill-opacity:1;fill-rule:evenodd;stroke:none" />
  <g
     transform="translate(44.126593,-3.2918956)"
     id="g2464">
    <path
       d="m 49.066773,24.22879 c 0.0012,6.850275 -5.551709,12.404157 -12.401985,12.404157 -6.850275,0 -12.403184,-5.553882 -12.401985,-12.404157 -0.0012,-6.850276 5.55171,-12.404157 12.401985,-12.404157 6.850276,0 12.403184,5.553881 12.401985,12.404157 l 0,0 z"
       inkscape:connector-curvature="0"
       id="path2466"
       style="fill:#0000ff;fill-opacity:1;fill-rule:evenodd;stroke:#000000;stroke-width:0.38027155px;stroke-linecap:butt;stroke-linejoin:miter;stroke-opacity:1" />
    <path
       d="m 45.562914,32.95223 c -4.843029,4.844723 -12.696715,4.845411 -17.54059,0.0015 -4.843878,-4.843877 -4.843189,-12.697563 0.0015,-17.54059 4.843028,-4.844725 12.696714,-4.845413 17.540591,-0.0015 4.843875,4.843876 4.843187,12.697563 -0.0015,17.540591 l 0,0 z"
       inkscape:connector-curvature="0"
       id="path2468"
       style="opacity:0.71739131;fill:url(#linearGradient2472);fill-opacity:1;fill-rule:evenodd;stroke:none" />
    <path
       d="m 39.147988,19.481422 c 6.73e-4,3.844893 -3.11604,6.962154 -6.960935,6.962154 -3.844894,0 -6.961608,-3.117261 -6.960935,-6.962154 -6.73e-4,-3.844895 3.116041,-6.962154 6.960935,-6.962154 3.844895,0 6.961608,3.117259 6.960935,6.962154 l 0,0 z"
       inkscape:connector-curvature="0"
       id="path2470"
       style="fill:url(#radialGradient2474);fill-opacity:1;fill-rule:evenodd;stroke:none" />
  </g>
  <path
     d="m 66.70552,20.51694 -24.308053,-7.347484 0.0061,5.61476 -8.225919,0.0056 0.0038,3.498813 8.225918,-0.0056 0.0061,5.614761 24.292013,-7.380851 z"
     inkscape:connector-curvature="0"
     id="path3464"
     style="fill:#000000;fill-opacity:1;fill-rule:evenodd;stroke:#000000;stroke-width:0.8975141;stroke-linecap:round;stroke-linejoin:round;stroke-miterlimit:4;stroke-opacity:1;stroke-dashoffset:0" />
</svg>

<?xml version="1.0" encoding="UTF-8" standalone="no"?>
<!-- Created with Inkscape (http://www.inkscape.org/) -->
<svg
   xmlns:svg="http://www.w3.org/2000/svg"
   xmlns="http://www.w3.org/2000/svg"
   xmlns:xlink="http://www.w3.org/1999/xlink"
   version="1.0"
   width="100"
   height="100"
   id="svg2">
  <defs
     id="defs4">
    <linearGradient
       id="linearGradient3458">
      <stop
         id="stop3460"
         style="stop-color:#ffffff;stop-opacity:1"
         offset="0" />
      <stop
         id="stop3462"
         style="stop-color:#a2a5aa;stop-opacity:0"
         offset="1" />
    </linearGradient>
    <linearGradient
       id="linearGradient3452">
      <stop
         id="stop3454"
         style="stop-color:#ffffff;stop-opacity:1"
         offset="0" />
      <stop
         id="stop3456"
         style="stop-color:#000000;stop-opacity:1"
         offset="1" />
    </linearGradient>
    <linearGradient
       id="linearGradient3384">
      <stop
         id="stop3386"
         style="stop-color:#0000ff;stop-opacity:1"
         offset="0" />
      <stop
         id="stop3388"
         style="stop-color:#000000;stop-opacity:1"
         offset="1" />
    </linearGradient>
    <linearGradient
       id="linearGradient3252">
      <stop
         id="stop3254"
         style="stop-color:#ffffff;stop-opacity:1"
         offset="0" />
      <stop
         id="stop3256"
         style="stop-color:#7f7fff;stop-opacity:0"
         offset="1" />
    </linearGradient>
    <linearGradient
       x1="25.398125"
       y1="63.345894"
       x2="90.625114"
       y2="63.345894"
       id="linearGradient2472"
       xlink:href="#linearGradient3384"
       gradientUnits="userSpaceOnUse"
       gradientTransform="matrix(0.2688926,0.2688926,-0.2688926,0.2688926,38.227733,-8.4494346)" />
    <radialGradient
       cx="58.01162"
       cy="63.345894"
       r="33.113495"
       fx="58.01162"
       fy="63.345894"
       id="radialGradient2474"
       xlink:href="#linearGradient3252"
       gradientUnits="userSpaceOnUse"
       gradientTransform="matrix(0.2134373,0,0,0.2134373,19.805211,5.9610473)" />
    <radialGradient
       cx="58.01162"
       cy="63.345894"
       r="33.113495"
       fx="58.01162"
       fy="63.345894"
       id="radialGradient2477"
       xlink:href="#linearGradient3458"
       gradientUnits="userSpaceOnUse"
       gradientTransform="matrix(0.2134373,0,0,0.2134373,1.5077702,2.6691513)" />
    <linearGradient
       x1="25.398125"
       y1="63.345894"
       x2="90.625114"
       y2="63.345894"
       id="linearGradient2480"
       xlink:href="#linearGradient3452"
       gradientUnits="userSpaceOnUse"
       gradientTransform="matrix(0.2688926,0.2688926,-0.2688926,0.2688926,19.930292,-11.741331)" />
  </defs>
  <path
     d="M 33.941707,24.730861 C 33.942907,31.581136 28.389998,37.135018 21.539722,37.135018 C 14.689447,37.135018 9.136538,31.581136 9.137737,24.730861 C 9.136537,17.880585 14.689447,12.326704 21.539722,12.326704 C 28.389998,12.326704 33.942906,17.880585 33.941707,24.730861 L 33.941707,24.730861 z"
     id="path4435"
     style="fill:#282828;fill-opacity:1;fill-rule:evenodd;stroke:none" />
  <rect
     width="29.618961"
     height="29.618961"
     x="8.1732807"
     y="48.870705"
     id="rect4441"
     style="fill:#282828;fill-opacity:1;fill-rule:evenodd;stroke:none" />
  <rect
     width="29.618961"
     height="29.618961"
     x="70.158958"
     y="48.870705"
     id="rect4447"
     style="fill:#282828;fill-opacity:1;fill-rule:evenodd;stroke:none" />
  <path
     d="M 38.377033,49.758242 L 45.312573,93.017087 L 55.628413,87.061227 L 62.556293,99.060667 L 68.984563,95.349307 L 62.056683,83.34987 L 72.372523,77.394017 L 38.377033,49.758242 z"
     id="path4451"
     style="fill:#282828;fill-opacity:1;fill-rule:evenodd;stroke:none" />
  <path
     d="M 96.365741,24.730861 C 96.366941,31.581136 90.814032,37.135018 83.963756,37.135018 C 77.113481,37.135018 71.560572,31.581136 71.561771,24.730861 C 71.560571,17.880585 77.113481,12.326704 83.963756,12.326704 C 90.814032,12.326704 96.36694,17.880585 96.365741,24.730861 L 96.365741,24.730861 z"
     id="path4457"
     style="fill:#282828;fill-opacity:1;fill-rule:evenodd;stroke:none" />
  <path
     d="M 30.769332,20.936894 C 30.770532,27.787169 25.217623,33.341051 18.367347,33.341051 C 11.517072,33.341051 5.9641632,27.787169 5.9653622,20.936894 C 5.9641622,14.086618 11.517072,8.532737 18.367347,8.532737 C 25.217623,8.532737 30.770531,14.086618 30.769332,20.936894 L 30.769332,20.936894 z"
     id="path3474"
     style="fill:#e4e4e3;fill-opacity:1;fill-rule:evenodd;stroke:#000000;stroke-width:0.38027155px;stroke-linecap:butt;stroke-linejoin:miter;stroke-opacity:1" />
  <path
     d="M 27.265473,29.660334 C 22.422444,34.505057 14.568758,34.505745 9.7248832,29.661834 C 4.8810052,24.817957 4.8816942,16.964271 9.7264132,12.121244 C 14.569441,7.276519 22.423127,7.275831 27.267004,12.119744 C 32.110879,16.96362 32.110191,24.817307 27.265504,29.660335 L 27.265504,29.660335 L 27.265473,29.660334 z"
     id="path3476"
     style="opacity:0.71739131;fill:url(#linearGradient2480);fill-opacity:1;fill-rule:evenodd;stroke:none" />
  <g
     transform="matrix(1.5408162,0,0,1.5408162,-3.6468576,35.77771)"
     id="g2219">
    <rect
       width="19.222904"
       height="19.222904"
       x="4.4989777"
       y="4.7034764"
       id="rect2217"
       style="fill:#e4e7e1;fill-opacity:1;fill-rule:evenodd;stroke:#000000;stroke-width:1.5;stroke-linecap:round;stroke-linejoin:round;stroke-miterlimit:4;stroke-dasharray:none;stroke-dashoffset:0;stroke-opacity:1" />
    <path
       d="M 10.1248,8.9966755 L 11.308393,8.9966755 L 11.308393,12.582613 L 15.609175,12.582613 L 15.609175,8.9966755 L 16.792768,8.9966755 L 16.792768,17.744722 L 15.609175,17.744722 L 15.609175,13.578707 L 11.308393,13.578707 L 11.308393,17.744722 L 10.1248,17.744722 L 10.1248,8.9966755"
       id="text3300"
       style="font-size:12px;font-style:normal;font-weight:normal;fill:#000000;fill-opacity:1;stroke:none;font-family:Bitstream Vera Sans" />
  </g>
  <g
     transform="matrix(1.5408162,0,0,1.5408162,58.691024,-5.3423634)"
     id="g2215">
    <rect
       width="19.222904"
       height="19.222904"
       x="4.2703981"
       y="31.390678"
       id="rect3191"
       style="fill:#004fe1;fill-opacity:1;fill-rule:evenodd;stroke:#000000;stroke-width:1.5;stroke-linecap:round;stroke-linejoin:round;stroke-miterlimit:4;stroke-dasharray:none;stroke-dashoffset:0;stroke-opacity:1" />
    <path
       d="M 9.2428141,36.652134 L 10.426408,36.652134 L 10.426408,44.404087 L 14.686173,44.404087 L 14.686173,45.400181 L 9.2428141,45.400181 L 9.2428141,36.652134 M 15.875627,38.837681 L 16.953752,38.837681 L 16.953752,45.400181 L 15.875627,45.400181 L 15.875627,38.837681 M 15.875627,36.282993 L 16.953752,36.282993 L 16.953752,37.648228 L 15.875627,37.648228 L 15.875627,36.282993"
       id="text3342"
       style="font-size:12px;font-style:normal;font-weight:normal;fill:#000000;fill-opacity:1;stroke:none;font-family:Bitstream Vera Sans" />
  </g>
  <path
     d="M 35.204658,45.964275 L 42.140198,89.223119 L 52.456038,83.267265 L 59.383918,95.2667 L 65.812188,91.555337 L 58.884308,79.555903 L 69.200148,73.60005 L 35.204658,45.964275 L 35.204658,45.964275 z"
     id="path6783"
     style="fill:#ffffff;fill-opacity:1;fill-rule:evenodd;stroke:#000000;stroke-width:1.69662297;stroke-linecap:round;stroke-linejoin:round;stroke-miterlimit:4;stroke-dashoffset:0;stroke-opacity:1" />
  <path
     d="M 20.850547,16.189526 C 20.85122,20.034419 17.734507,23.15168 13.889612,23.15168 C 10.044718,23.15168 6.9280042,20.034419 6.9286772,16.189526 C 6.9280042,12.344631 10.044718,9.227372 13.889612,9.227372 C 17.734507,9.227372 20.85122,12.344631 20.850547,16.189526 L 20.850547,16.189526 z"
     id="path3478"
     style="fill:url(#radialGradient2477);fill-opacity:1;fill-rule:evenodd;stroke:none" />
  <g
     transform="translate(44.126593,-3.2918956)"
     id="g2464">
    <path
       d="M 49.066773,24.22879 C 49.067973,31.079065 43.515064,36.632947 36.664788,36.632947 C 29.814513,36.632947 24.261604,31.079065 24.262803,24.22879 C 24.261603,17.378514 29.814513,11.824633 36.664788,11.824633 C 43.515064,11.824633 49.067972,17.378514 49.066773,24.22879 L 49.066773,24.22879 L 49.066773,24.22879 z"
       id="path2466"
       style="fill:#0000ff;fill-opacity:1;fill-rule:evenodd;stroke:#000000;stroke-width:0.38027155px;stroke-linecap:butt;stroke-linejoin:miter;stroke-opacity:1" />
    <path
       d="M 45.562914,32.95223 C 40.719885,37.796953 32.866199,37.797641 28.022324,32.95373 C 23.178446,28.109853 23.179135,20.256167 28.023824,15.41314 C 32.866852,10.568415 40.720538,10.567727 45.564415,15.41164 C 50.40829,20.255516 50.407602,28.109203 45.562915,32.952231 L 45.562915,32.952231 L 45.562914,32.95223 z"
       id="path2468"
       style="opacity:0.71739131;fill:url(#linearGradient2472);fill-opacity:1;fill-rule:evenodd;stroke:none" />
    <path
       d="M 39.147988,19.481422 C 39.148661,23.326315 36.031948,26.443576 32.187053,26.443576 C 28.342159,26.443576 25.225445,23.326315 25.226118,19.481422 C 25.225445,15.636527 28.342159,12.519268 32.187053,12.519268 C 36.031948,12.519268 39.148661,15.636527 39.147988,19.481422 L 39.147988,19.481422 z"
       id="path2470"
       style="fill:url(#radialGradient2474);fill-opacity:1;fill-rule:evenodd;stroke:none" />
  </g>
  <path
     d="M 66.70552,20.51694 L 42.397467,13.169456 L 42.403567,18.784216 L 34.177648,18.789816 L 34.181448,22.288629 L 42.407366,22.283029 L 42.413466,27.89779 L 66.705479,20.516939 L 66.70552,20.51694 z"
     id="path3464"
     style="fill:#000000;fill-opacity:1;fill-rule:evenodd;stroke:#000000;stroke-width:0.8975141;stroke-linecap:round;stroke-linejoin:round;stroke-miterlimit:4;stroke-dashoffset:0;stroke-opacity:1" />
</svg>
